X:1
T:Liberty Bell
T:Liberty Bell
T:March
T:John Philip Sousa
C:John Philip Sousa
%%score 1 2 3 4
L:1/8
Q:3/8=120
M:6/8
K:F
V:1 treble transpose=-2 nm="B♭ Trumpet" snm="B♭ Tpt."
V:2 treble transpose=-2 nm="B♭ Trumpet" snm="B♭ Tpt."
V:3 treble transpose=-7 nm="Horn in F" snm="F Hn."
V:4 bass nm="Trombone" snm="Tbn."
V:1
[K:G]!ff! (g2 f e2 _e | d2 ^c =c2 B) | .A.B.c B2 A | D2 z z2!mp! d |:"^A" BzB B^AB | gzd dzB | %6
 c2 c c2 d | e3- e2 c | AzA A^GA | fze ezc | BzB Bzc | d3- d2 d | BzB B^AB | bzg gzd | %14
 ^cza!<(! aza | a3-!<)! a2 g |!f! (!>!fza a^ga) | (!>!eza a^ga) | !>!dz^c !>!dzc |1 d3 d3 :|2 %20
 d3 z z2 |:"^B" z6 | z6 | z6 | z6 | z6 | z6 | z6 | z3 z2!f! d | (eze e^de) | f3 f3 | %31
!<(! g2 g (a!<)!g)a | b3- b2 b | azg!>(! ezc!>)! | B3 G3 | A3 F3 |1 G3- G2 z :|2 G3- G2 z || %38
[K:C]"^C" z6 | z6 |!f! !^!eze ez^d | e3- e2 z | z6 | z6 |!ff! !^!fzf fze | f3- f2 e | (d3 ^c3 | %47
 d2) z4 | (e3 ^d3 | e2) z4 | z6 | z6 |!f! F3 F3 |!>(! F3!>)! D3 | z6 | z6 |!f! !^!eze ez^d | %57
 e3- e2 z | z6 | z6 | !^!fzf fze | f3- f2 e | (d3 ^c3 | d2) z4 | (e3 ^d3 | e2) z4 |!f! (A3 f3) | %67
 (e2 c d2 B) | (c6 | c2) z4 |:!f!"^D" z2 f fed | c3 z2 z | z2 .f .f.e.d | A2 z z2 z | z2 f fed | %75
 c2 c dcd | e2 z e2 z |!ff! e2 z z2 z | z2 .a .a.g.f | e2 z z2 z | z2 a agf | e2 z z2 z | %82
 z2 a agf | e2 e ^fef | g2 z g2 z |!ff! g2 z z2 z | z2 z z2 !^!^f | !^!g2 !^!d !^!g3 | %88
 z2 z z2 !^!^f | !^!g2 !^!d !^!g3 | !^!^f6 | !^!g6 | !^!_a6 | B3"^E"!<(! !^!f3!<)! | z6 | z6 | %96
!ff! !^!eze ez^d | e3- e2 z | z6 | z6 | !^!fzf fze | f3- f2 e | (d3 ^c3 | d2) z4 | (e3 ^d3 | %105
 e2) z4 | z6 | z6 |!f! F3 F3 |!>(! F3!>)! D3 | z6 | z6 |!f! !^!eze ez^d | e3- e2 z | z6 | z6 | %116
 !^!fzf fze | f3- f2 e | (d3 ^c3 | d2) z4 | (e3 ^d3 | e2) z4 |!f! (A3 f3) | (e2 c d2 B) | (c6 |1 %125
 c2) z4 :|2 c2 z c2 z |] %127
V:2
[K:G]!ff! (g2 f e2 _e | d2 ^c =c2 B) | .A.B.c B2 A | D2 z4 |:!p! GzG G^AG | BzB BzG | A2 A A2 B | %7
 c3- c2 A | FzF F^GF | czc czA | GzG GzA | B3- B2 B | GzG G^AG | dzB BzB | Aze!<(! eze | %15
 e3-!<)! e2 z |!f! d3 d3 | ^c3 e3 | !>!AzA !>!AzA |1 A3 A3 :|2 A3 z z2 |: z6 | z6 | z6 | z6 | z6 | %26
 z6 | z6 | z3 z2!mf! d | G6 | B3 A3 |!<(! G3!<)! e3 | B3- B2 B | ezg!>(! ezc!>)! | B3 G3 | A3 F3 |1 %36
 G3- G2 z :|2 G3- G2 z ||[K:C] z6 | z6 |!f! !^!czc czc | c3- c2 z | z6 | z6 |!ff! !^!dzd dz^c | %45
 d3- d2 z | (z2 B z2 ^A | B2) z4 | (z2 c z2 c | c2) z4 | z6 | z6 |!f! D3 C3 |!>(! B,3!>)! B,3 | %54
 z6 | z6 |!f! !^!czc czc | c3- c2 z | z6 | z6 | !^!dzd dz^c | d3- d2 z | (z2 B z2 ^A | B2) z4 | %64
 (z2 c z2 c | c2) z4 | z6 | z6 | z2 E E2 E | E2 z4 |:!f! z2 B BBB | A3 z2 z | z2 .B .B.B.B | %73
 A2 z z2 z | z2 B BBB | A2 A AAA | B2 z B2 z |!ff! B2 z z2 z | z2 .f .f.e.d | c2 z z2 z | %80
 z2 f fed | c2 z z2 z | z2 f fed | c2 c cec | d2 z d2 z |!ff! d2 z z2 z | z2 z z2 !^!c | %87
 !^!d2 !^!d !^!g3 | z2 z z2 !^!c | !^!d2 !^!d !^!g3 | !^!c6 | !^!c6 | !^!c6 | f3!<(! !^!f3!<)! | %94
 z6 | z6 |!ff! !^!czc czc | c3- c2 z | z6 | z6 | !^!dzd dz^c | d3- d2 z | (z2 B z2 ^A | B2) z4 | %104
 (z2 c z2 c | c2) z4 | z6 | z6 |!f! D3 C3 |!>(! B,3!>)! B,3 | z6 | z6 |!f! !^!czc czc | c3- c2 z | %114
 z6 | z6 | !^!dzd dz^c | d3- d2 z | (z2 B z2 ^A | B2) z4 | (z2 c z2 c | c2) z4 | z6 | z6 | %124
 z2 E E2 E |1 E2 z4 :|2 E2 z E2 z |] %127
V:3
[K:C]!ff! (c2 B A2 _A | G2 ^F =F2 E) | .D.E.F E2 D | G,2 z4 |:!pp! Cze eze | Cze eze | Cze eze | %7
 Cze eze | Gzf fzf | Gzf fzf | Gzf fzf | Gz!>(!f fz!>)!f | Cze eze | Cze eze | Cze eze | Cze eze | %16
!mf! Dzg gzg | Dz^f fzf | !>!GzD !>!GzD |1 G z z d z z :|2 G z z!mf! !>!F3 |: (E^DE A2 G | E3 C3) | %23
 (A,3 D3 | C3- C2) C | (DEF B2 A) | G3 c3 | B3 A3 | G3- G2 z | FzA AzA | Ez^G GzG | A,zA FzA | %32
 EzB BzB | Fzd dzd | G,zG GzG | B,zG G,zG |1 GzG G2 G :|2 GzG G2 c ||[K:F]!p!!<(! (A3 B3!<)! | %39
 =B3!mf! c3) | z6 | z4 z c |!p!!<(! (A3 B3!<)! | =B3!f! c3) | z6 | z6 | Cze Cz^d | Cze Cze | %48
 Fzf F,z^G | F,zA F,zA | G,zG G,zG | G,zG G,zG | (C2 c) (C2 c) | (C2 c) (C2 c) | %54
!p!!<(! (A3 B3!<)! | =B3 c3) | z6 | z4 z c |!p!!<(! (A3 B3!<)! | =B3 c3) | z6 | z6 | Cze Cz^d | %63
 Cze Cze | Fzf F,z^G | F,zA F,zA | B,zF G,zF | CzF CzE | F,zF FzF | F2!fff! .F .F.E.D |: (^C6 | %71
 D2) .F .F.E.D | (^C6 | D2) F FED | (^C6 | D2) d B2 B | ^c2 z A,2 z | z2 .F .F.E.D | (E6 | %79
 F2) .F .F.E.D | (E6 | F2) .A .A.G.F | (E6 | F3) _D3 | C2 z C2 z | z2 C CCC | _D2 _A F2 D | %87
 C2 G, C2 C | _D2 _A F2 D | C2 G, C2 C | F2 E F2 _D | !^!C2 =B, C2 A, | !^!G,2 A, B,2 G, | %93
 C3 z2 z |!f! (A3 B3 | =B3 c3) | z6 | z4 z c | (A3 B3 | =B3 c3) | z6 | z6 | Cze Cz^d | Cze Cze | %104
 Fzf F,z^G | F,zA F,zA | G,zG G,zG | G,zG G,zG | (C2 c) (C2 c) | (C2 c) (C2 c) | %110
!p!!<(! (A3 B3!<)! | =B3 c3) | z6 | z4 z c |!p!!<(! (A3 B3!<)! | =B3 c3) | z6 | z6 | Cze Cz^d | %119
 Cze Cze | Fzf F,z^G | F,zA F,zA | B,zF G,zF | CzF CzE | F,zF FzF |1 F2!fff! .F .F.E.D :|2 %126
 F2 z F2 z |] %127
V:4
!ff! (F,2 E, D,2 _D, | C,2 =B,, _B,,2 A,,) | .G,,.A,,.B,, A,,2 G,, | C,2 z4 |:!pp! F,,zC CzC | %5
 F,,zC CzC |!mp! E,2 F, G,2 F, | E,2 D, C,2 z |!pp! C,zC CzC | G,zC C,zC |!mp! F,2 G, A,2 G, | %11
 F,2!>(! E, D,2!>)! C, |!pp! F,zA, A,zA, | F,zA, A,zA, |!mp! D,2 E, F,2 E, | D,2 C, =B,,2 A,, | %16
!mf! G,,zG, G,zG, | G,,z=B, B,zB, | !>!C,zG,, !>!C,zG,, |1 C, z z C z z :|2 C, z z z z2 |: %21
!mp! F,zC C,zC | F,zC A,,zC | B,,zB, C,zB, | F,,zC CzC | E,zC C,zC | F,zC D,zC | %27
 G,, z{/^F,}G, G,, z{/F,}G, | C,zC CzC |!mf! B,,zB, B,zB, | A,,zA, A,zA, | D,zA, B,,zB, | %32
 A,,zA, A,zA, | B,,zD DzD | C,zA, A,zA, | E,zB, C,zB, |1 A,zA, A,2 z :|2 A,zA, A,2 F, || %38
[K:Bb]!p!!<(! (B,3 B,3!<)! | B,3!mf! B,3) | B,,zF Fz=E | B,,zF F z F, |!p!!<(! (B,3 B,3!<)! | %43
 B,3!f! B,3) | F,,zE EzD | F,,zE E z2 | z6 | z2 (F, =E,2 F,) | z6 | z2 (F, =E,2 F,) | A,3 C3 | %51
 B,3 (G,2 B,) |!f! A,3 G,3 |!>(! F,3!>)! E,3 |!p!!p!!<(! ((B,3 B,3!<)! | B,3!mf! B,3)) | %56
 B,,zF Fz=E | B,,zF F z F, |!p!!p!!<(! ((B,3 B,3!<)! | B,3!f! B,3)) | F,,zE EzD | F,,zE E z2 | z6 | %63
 z2 (F, =E,2 F,) | z6 | z2 (F, =E,2 F,) | E,zG, C,zG, | F,zG, F,,zF, | B,,zF, F,zF, | %69
 B,,2!fff! .B,, .B,,.A,,.G,, |: (^F,,6 | G,,2) .B,, .B,,.A,,.G,, | (^F,,6 | %73
 G,,2) .B,, .B,,.A,,.G,, | (^F,,6 | G,,2) B, G,2 G, | A,2 z D,,2 z | z2 .D, .D,.C,.B,, | (A,,6 | %79
 B,,2) .D, .D,.C,.B,, | (A,,6 | B,,2) .D, .D,.C,.B,, | (A,,6 | B,,3) _G,,3 | F,,2 z F,,2 z | %85
 z2 F, F,F,F, | _G,2 _D B,2 G, | F,2 C F,2 F, | _G,2 _D B,2 G, | F,2 C F,2 F, | B,2 A, B,2 _G, | %91
 !^!F,2 =E, F,2 D, | !^!C,2 D, E,2 C, | F,3 z2 z |!f! (B,3 B,3 | B,3 B,3) | B,,zF Fz=E | %97
 B,,zF F z F, | (B,3 B,3 | B,3 B,3) | F,,zE EzD | F,,zE E z2 | z6 | z2 (F, =E,2 F,) | z6 | %105
 z2 (F, =E,2 F,) | A,3 C3 | B,3 (G,2 B,) |!f! A,3 G,3 |!>(! F,3!>)! E,3 |!p!!p!!<(! ((B,3 B,3!<)! | %111
 B,3!mf! B,3)) | B,,zF Fz=E | B,,zF F z F, |!p!!p!!<(! ((B,3 B,3!<)! | B,3!f! B,3)) | F,,zE EzD | %117
 F,,zE E z2 | z6 | z2 (F, =E,2 F,) | z6 | z2 (F, =E,2 F,) | E,zG, C,zG, | F,zG, F,,zF, | %124
 B,,zF, F,zF, |1 B,,2!fff! .B,, .B,,.A,,.G,, :|2 B,,2 z B,,2 z |] %127

